app/dist/common/images/morningstar.svg

<svg height="18" width="18" xmlns="http://www.w3.org/2000/svg"><path d="m0 0h18v18h-18z" fill="#f40103"/><path d="m12 4v10h-.996v-8.57l-1.539 8.57h-.945l-1.516-8.57v8.57h-1.004v-10h1.997l1.042 6.034.958-6.034z" fill="#fff"/></svg>

<!-- by TradingView --><svg width="18" height="18" xmlns="http://www.w3.org/2000/svg"><path fill="#F40103" d="M0 0h18v18H0z"/><path d="M12 4v10h-.996V5.43L9.465 14H8.52L7.004 5.43V14H6V4h1.997l1.042 6.034L9.997 4H12z" fill="#fff"/></svg>
